packages/foundations/assets/icons/functional/images/social/heart.svg

<svg xmlns="http://www.w3.org/2000/svg" width="32" height="32" fill="none"><path fill="#1A1C1F" fill-rule="evenodd" d="M8.766 4.168c-1.271.087-2.565.565-3.699 1.367-.505.356-1.42 1.301-1.768 1.825-.869 1.309-1.287 2.677-1.287 4.213 0 1.677.477 3.105 1.503 4.501.251.342 11.805 11.582 12.024 11.697.228.121.654.114.895-.014.194-.104 11.529-11.116 11.891-11.553 1.895-2.288 2.208-5.553.786-8.204-.924-1.724-2.733-3.146-4.604-3.62-.686-.174-1.126-.226-1.893-.226-1.1 0-1.903.151-2.862.541-1.027.417-1.684.886-2.921 2.085l-.889.862-.944-.932c-1.037-1.023-1.462-1.351-2.305-1.775-1.237-.623-2.484-.866-3.927-.767m2.114 2.195c1.197.36 1.653.678 3.308 2.31 1.893 1.866 1.763 1.867 3.652-.032.645-.649 1.332-1.298 1.525-1.443a5.7 5.7 0 0 1 1.675-.832c.453-.14.537-.148 1.493-.148s1.041.009 1.494.148c1.869.574 3.192 1.899 3.736 3.741.201.681.241 1.804.089 2.534a5.3 5.3 0 0 1-.977 2.17c-.244.326-10.859 10.644-10.924 10.619-.025-.009-1.949-1.864-4.278-4.122-7.049-6.836-6.703-6.476-7.166-7.452-.368-.777-.474-1.29-.472-2.283.002-.721.02-.894.143-1.36.524-1.972 2.097-3.503 4.033-3.926.691-.151 2.041-.112 2.669.076"/></svg>

<svg width="32" height="32" viewBox="0 0 32 32" fill="none" xmlns="http://www.w3.org/2000/svg"><path d="M8.766 4.168 C 7.495 4.255,6.201 4.733,5.067 5.535 C 4.562 5.891,3.647 6.836,3.299 7.360 C 2.430 8.669,2.012 10.037,2.012 11.573 C 2.012 13.250,2.489 14.678,3.515 16.074 C 3.766 16.416,15.320 27.656,15.539 27.771 C 15.767 27.892,16.193 27.885,16.434 27.757 C 16.628 27.653,27.963 16.641,28.325 16.204 C 30.220 13.916,30.533 10.651,29.111 8.000 C 28.187 6.276,26.378 4.854,24.507 4.380 C 23.821 4.206,23.381 4.154,22.614 4.154 C 21.514 4.154,20.711 4.305,19.752 4.695 C 18.725 5.112,18.068 5.581,16.831 6.780 L 15.942 7.642 14.998 6.710 C 13.961 5.687,13.536 5.359,12.693 4.935 C 11.456 4.312,10.209 4.069,8.766 4.168 M10.880 6.363 C 12.077 6.723,12.533 7.041,14.188 8.673 C 16.081 10.539,15.951 10.540,17.840 8.641 C 18.485 7.992,19.172 7.343,19.365 7.198 C 19.820 6.858,20.438 6.551,21.040 6.366 C 21.493 6.226,21.577 6.218,22.533 6.218 C 23.489 6.218,23.574 6.227,24.027 6.366 C 25.896 6.940,27.219 8.265,27.763 10.107 C 27.964 10.788,28.004 11.911,27.852 12.641 C 27.684 13.451,27.368 14.153,26.875 14.811 C 26.631 15.137,16.016 25.455,15.951 25.430 C 15.926 25.421,14.002 23.566,11.673 21.308 C 4.624 14.472,4.970 14.832,4.507 13.856 C 4.139 13.079,4.033 12.566,4.035 11.573 C 4.037 10.852,4.055 10.679,4.178 10.213 C 4.702 8.241,6.275 6.710,8.211 6.287 C 8.902 6.136,10.252 6.175,10.880 6.363 " fill="#1A1C1F" stroke="none" fill-rule="evenodd"></path></svg>
